img/buildings3.svg

<svg width="32" height="32" viewBox="0 0 32 32" fill="none" xmlns="http://www.w3.org/2000/svg">
<path d="M14.1336 5.53339V8.00002H12.1603C10.0137 8.00002 8.93367 9.08 8.93367 11.2267V24H5.53369C3.62702 24 2.66699 23.04 2.66699 21.1333V5.53339C2.66699 3.62672 3.62702 2.66669 5.53369 2.66669H11.267C13.1737 2.66669 14.1336 3.62672 14.1336 5.53339Z" fill="#191A23"/>
<path opacity="0.4" d="M23.1602 11.2266V26.1067C23.1602 28.2534 22.0936 29.3333 19.9469 29.3333H12.1602C10.0136 29.3333 8.93359 28.2534 8.93359 26.1067V11.2266C8.93359 9.07998 10.0136 8 12.1602 8H19.9469C22.0936 8 23.1602 9.07998 23.1602 11.2266Z" fill="#191A23"/>
<path d="M29.3328 5.53339V21.1333C29.3328 23.04 28.3728 24 26.4661 24H23.1595V11.2267C23.1595 9.08 22.0929 8.00002 19.9462 8.00002H17.8662V5.53339C17.8662 3.62672 18.8262 2.66669 20.7328 2.66669H26.4661C28.3728 2.66669 29.3328 3.62672 29.3328 5.53339Z" fill="#191A23"/>
<path d="M18.6663 15.6667H13.333C12.7863 15.6667 12.333 15.2134 12.333 14.6667C12.333 14.12 12.7863 13.6667 13.333 13.6667H18.6663C19.213 13.6667 19.6663 14.12 19.6663 14.6667C19.6663 15.2134 19.213 15.6667 18.6663 15.6667Z" fill="#191A23"/>
<path d="M18.6663 19.6667H13.333C12.7863 19.6667 12.333 19.2134 12.333 18.6667C12.333 18.12 12.7863 17.6667 13.333 17.6667H18.6663C19.213 17.6667 19.6663 18.12 19.6663 18.6667C19.6663 19.2134 19.213 19.6667 18.6663 19.6667Z" fill="#191A23"/>
<path d="M17 25.3333V29.3333H15V25.3333C15 24.7866 15.4533 24.3333 16 24.3333C16.5467 24.3333 17 24.7866 17 25.3333Z" fill="#191A23"/>
</svg>

<svg xmlns="http://www.w3.org/2000/svg" width="32" height="32" fill="none"><path fill="#191A23" d="M14.134 5.533V8H12.16c-2.146 0-3.226 1.08-3.226 3.227V24h-3.4c-1.907 0-2.867-.96-2.867-2.867v-15.6c0-1.906.96-2.866 2.867-2.866h5.733c1.907 0 2.867.96 2.867 2.866"/><path fill="#191A23" d="M23.16 11.227v14.88c0 2.146-1.066 3.226-3.213 3.226H12.16c-2.146 0-3.226-1.08-3.226-3.226v-14.88C8.934 9.08 10.014 8 12.16 8h7.787c2.147 0 3.213 1.08 3.213 3.227" opacity=".4"/><path fill="#191A23" d="M29.333 5.533v15.6c0 1.907-.96 2.867-2.867 2.867H23.16V11.227C23.16 9.08 22.093 8 19.946 8h-2.08V5.533c0-1.906.96-2.866 2.867-2.866h5.733c1.907 0 2.867.96 2.867 2.866M18.666 15.667h-5.333c-.547 0-1-.454-1-1 0-.547.453-1 1-1h5.333c.547 0 1 .453 1 1s-.453 1-1 1M18.666 19.667h-5.333c-.547 0-1-.454-1-1 0-.547.453-1 1-1h5.333c.547 0 1 .453 1 1s-.453 1-1 1M17 25.333v4h-2v-4c0-.546.453-1 1-1s1 .454 1 1"/></svg>
